ui/StatusQ/src/assets/img/icons/network.svg

<svg fill="none" height="24" viewBox="0 0 24 24" width="24" xmlns="http://www.w3.org/2000/svg"><path clip-rule="evenodd" d="m8.81097 18.6376c.07636-.2223.27605-.3876.5111-.3876h5.35583c.2351 0 .4348.1653.5111.3876.4722 1.3746 1.7762 2.3624 3.311 2.3624 1.933 0 3.5-1.567 3.5-3.5s-1.567-3.5-3.5-3.5c-.1964 0-.389.0162-.5766.0473-.2315.0383-.4713-.0586-.5832-.2649l-2.8614-5.27936c-.1119-.20649-.062-.46058.097-.63339.5738-.62339.9242-1.4556.9242-2.36965 0-1.933-1.567-3.5-3.5-3.5s-3.5 1.567-3.5 3.5c0 .91406.35039 1.74628.92419 2.36967.15905.1728.20895.42689.09703.63338l-2.86131 5.27935c-.11183.2064-.35169.3033-.58322.2649-.18761-.0311-.38026-.0473-.57669-.0473-1.933 0-3.5 1.567-3.5 3.5s1.567 3.5 3.5 3.5c1.53476 0 2.8388-.9878 3.31097-2.3624zm2.02913-9.42003c.1118-.20633.3517-.30324.5832-.26485.1876.0311.3803.04728.5767.04728s.3891-.01618.5767-.04729c.2315-.03838.4714.05852.5832.26485l2.8614 5.27924c.1119.2065.062.4606-.097.6335-.3239.3518-.5766.7701-.7353 1.2322-.0764.2223-.276.3875-.5111.3875h-5.35583c-.23505 0-.43472-.1652-.51107-.3875-.15869-.462-.41136-.8803-.73518-1.2321-.15906-.1729-.20894-.4269-.09703-.6334zm-3.3401 8.28243c0 1.1046-.89543 2-2 2s-2-.8954-2-2 .89543-2 2-2 2 .8954 2 2zm13 0c0 1.1046-.8954 2-2 2s-2-.8954-2-2 .8954-2 2-2 2 .8954 2 2zm-6.5-12c0 1.10457-.8954 2-2 2s-2-.89543-2-2 .8954-2 2-2 2 .89543 2 2z" fill="#000" fill-rule="evenodd"/></svg>

<svg width="24" height="24" viewBox="0 0 24 24" fill="none" xmlns="http://www.w3.org/2000/svg">
<path fill-rule="evenodd" clip-rule="evenodd" d="M8.81097 18.6376C8.88733 18.4153 9.08702 18.25 9.32207 18.25H14.6779C14.913 18.25 15.1127 18.4153 15.189 18.6376C15.6612 20.0122 16.9652 21 18.5 21C20.433 21 22 19.433 22 17.5C22 15.567 20.433 14 18.5 14C18.3036 14 18.111 14.0162 17.9234 14.0473C17.6919 14.0856 17.4521 13.9887 17.3402 13.7824L14.4788 8.50304C14.3669 8.29655 14.4168 8.04246 14.5758 7.86965C15.1496 7.24626 15.5 6.41405 15.5 5.5C15.5 3.567 13.933 2 12 2C10.067 2 8.5 3.567 8.5 5.5C8.5 6.41406 8.85039 7.24628 9.42419 7.86967C9.58324 8.04247 9.63314 8.29656 9.52122 8.50305L6.65991 13.7824C6.54808 13.9888 6.30822 14.0857 6.07669 14.0473C5.88908 14.0162 5.69643 14 5.5 14C3.567 14 2 15.567 2 17.5C2 19.433 3.567 21 5.5 21C7.03476 21 8.3388 20.0122 8.81097 18.6376ZM10.8401 9.21757C10.9519 9.01124 11.1918 8.91433 11.4233 8.95272C11.6109 8.98382 11.8036 9 12 9C12.1964 9 12.3891 8.98382 12.5767 8.95271C12.8082 8.91433 13.0481 9.01123 13.1599 9.21756L16.0213 14.4968C16.1332 14.7033 16.0833 14.9574 15.9243 15.1303C15.6004 15.4821 15.3477 15.9004 15.189 16.3625C15.1126 16.5848 14.913 16.75 14.6779 16.75H9.32207C9.08702 16.75 8.88735 16.5848 8.811 16.3625C8.65231 15.9005 8.39964 15.4822 8.07582 15.1304C7.91676 14.9575 7.86688 14.7035 7.97879 14.497L10.8401 9.21757ZM7.5 17.5C7.5 18.6046 6.60457 19.5 5.5 19.5C4.39543 19.5 3.5 18.6046 3.5 17.5C3.5 16.3954 4.39543 15.5 5.5 15.5C6.60457 15.5 7.5 16.3954 7.5 17.5ZM20.5 17.5C20.5 18.6046 19.6046 19.5 18.5 19.5C17.3954 19.5 16.5 18.6046 16.5 17.5C16.5 16.3954 17.3954 15.5 18.5 15.5C19.6046 15.5 20.5 16.3954 20.5 17.5ZM14 5.5C14 6.60457 13.1046 7.5 12 7.5C10.8954 7.5 10 6.60457 10 5.5C10 4.39543 10.8954 3.5 12 3.5C13.1046 3.5 14 4.39543 14 5.5Z" fill="black"/>
</svg>
